public/icons/quicknode.svg

<svg width="74" height="74" viewBox="0 0 74 74" fill="none" xmlns="http://www.w3.org/2000/svg">
<path fill-rule="evenodd" clip-rule="evenodd" d="M37 60.1073C43.2848 60.1073 49.0026 57.6028 53.1609 53.539C53.2554 53.4445 53.4444 53.4445 53.5862 53.539L63.1788 63.1316L73.1494 73.1022C73.3857 73.3385 73.1494 73.6692 72.8659 73.5747L56.9413 68.2822C56.8467 68.235 56.7522 68.2823 56.705 68.3295C50.9872 71.9208 44.2299 74 37 74C16.539 74 0 57.4138 0 37C0 16.539 16.5862 0 37 0C57.4138 0 74 16.5862 74 37C74 45.742 70.9757 53.7752 65.9195 60.1073C65.825 60.2491 65.636 60.2491 65.4943 60.1073L45.931 40.5441C45.6948 40.3078 45.931 39.977 46.2146 40.0715L58.6424 44.2299C58.7842 44.2771 58.9732 44.1826 59.0204 44.0409C59.7292 41.8199 60.1073 39.4572 60.1073 37C60.1073 24.2414 49.7586 13.8455 36.9527 13.8455C24.1469 13.8455 13.7982 24.1941 13.7982 37C13.8455 49.7114 24.2414 60.1073 37 60.1073Z" fill="#00A4D6"/>
</svg>

<svg xmlns="http://www.w3.org/2000/svg" width="74" height="74" fill="none"><path fill="#00A4D6" fill-rule="evenodd" d="M37 60.107a23.068 23.068 0 0 0 16.16-6.568c.095-.095.284-.095.426 0l9.593 9.593 9.97 9.97c.237.236 0 .567-.283.473L56.94 68.282c-.094-.047-.189 0-.236.047A36.935 36.935 0 0 1 37 74C16.539 74 0 57.414 0 37 0 16.539 16.586 0 37 0s37 16.586 37 37a36.905 36.905 0 0 1-8.08 23.107c-.095.142-.284.142-.426 0L45.931 40.544c-.236-.236 0-.567.284-.472l12.427 4.158a.321.321 0 0 0 .378-.19A23.105 23.105 0 0 0 60.107 37c0-12.759-10.348-23.154-23.154-23.154S13.798 24.194 13.798 37C13.845 49.711 24.241 60.107 37 60.107Z" clip-rule="evenodd"/></svg>
